assets/fonts/nag-icon-font.svg

<?xml version="1.0" standalone="no"?>
<!DOCTYPE svg PUBLIC "-//W3C//DTD SVG 1.1//EN" "http://www.w3.org/Graphics/SVG/1.1/DTD/svg11.dtd" >
<svg xmlns="http://www.w3.org/2000/svg">
<metadata>
This is a custom SVG font generated by IcoMoon.
<iconset grid="16"></iconset>
</metadata>
<defs>
<font id="nag-icon-font" horiz-adv-x="512" >
<font-face units-per-em="512" ascent="480" descent="-32" />
<missing-glyph horiz-adv-x="512" />
<glyph class="hidden" unicode="&#xf000;" d="M0,480L 512 -32L0 -32 z" horiz-adv-x="0" />
<glyph unicode="&#xe000;" d="M 64,32 L 64,416 L 128,416 L 128,240 L 288,400 L 288,240 L 448,400 L 448,48 L 288,208 L 288,48 L 128,208 L 128,32 Z"  />
<glyph unicode="&#xe001;" d="M 288,400 L 288,240 L 448,400 L 448,48 L 288,208 L 288,48 L 112,224 Z"  />
<glyph unicode="&#xe002;" d="M 256,48 L 256,208 L 96,48 L 96,400 L 256,240 L 256,400 L 432,224 Z"  />
<glyph unicode="&#xe003;" d="M 448,416 L 448,32 L 384,32 L 384,208 L 224,48 L 224,208 L 64,48 L 64,400 L 224,240 L 224,400 L 384,240 L 384,416 Z"  />
<glyph unicode="&#xe004;" d="M 384,160L 256,288L 128,160 z"  />
<glyph unicode="&#xe005;" d="M 192.001,96L 320.001,224L 192.001,352 z"  />
<glyph unicode="&#xe007;" d="M 320.001,352L 192.001,224L 320.001,95.999 z"  />
<glyph unicode="&#xe008;" d="M 384,256L 256,384L 128,256 	zM 128,160L 256,32L 384,160 	z"  />
<glyph unicode="&#xe009;" d="M 512,175.953l0,96.094 l-73.387,12.231c-2.979,9.066-6.611,17.834-10.847,26.25l 43.227,60.517l-67.948,67.949l-60.413-43.152
		c-8.455,4.277-17.269,7.944-26.384,10.951L 304.047,480l-96.094,0 l-12.201-73.208c-9.115-3.007-17.929-6.674-26.383-10.951
		l-60.414,43.152l-67.949-67.949l 43.227-60.518c-4.235-8.415-7.867-17.183-10.846-26.249L0,272.047l0-96.094 l 73.559-12.26
		c 2.98-8.984, 6.605-17.674, 10.821-26.015l-43.374-60.724l 67.949-67.948l 60.827,43.447c 8.301-4.175, 16.945-7.764, 25.882-10.717
		L 207.953-32l 96.094,0 l 12.289,73.737c 8.937,2.953, 17.581,6.542, 25.883,10.716l 60.826-43.446l 67.948,67.948l-43.372,60.723
		c 4.216,8.341, 7.839,17.031, 10.82,26.016L 512,175.953z M 256,160c-35.346,0-64,28.653-64,64c0,35.346, 28.654,64, 64,64
		c 35.347,0, 64-28.654, 64-64C 320,188.653, 291.347,160, 256,160z"  />
<glyph unicode="&#xe00a;" d="M 504.978,22.12L 286.441,457.676C 278.070,472.559, 267.035,480, 256,480s-22.070-7.441-30.442-22.324L 7.021,22.12
	C-9.722-7.646, 4.521-32, 38.673-32l 434.654,0 C 507.478-32, 521.723-7.646, 504.978,22.12z M 256,32c-17.673,0-32,14.327-32,32
	c0,17.674, 14.327,32, 32,32c 17.674,0, 32-14.326, 32-32C 288,46.327, 273.674,32, 256,32z M 278,128l-44,0 l-10,128
	c0,17.673, 14.327,32, 32,32s 32-14.327, 32-32L 278,128z"  />
<glyph unicode="&#xe00b;" d="M 256,480C 114.615,480,0,365.385,0,224s 114.615-256, 256-256s 256,114.615, 256,256S 397.385,480, 256,480z M 208,64L 102,202l 47,49l 59-75
	l 185,151l 23-23L 208,64z"  />
<glyph unicode="&#xe00c;" d="M 256,480C 114.615,480,0,365.385,0,224s 114.615-256, 256-256s 256,114.615, 256,256S 397.385,480, 256,480z M 224,384l 64,0 l0-64 l-64,0 L 224,384 z
	 M 320,64L 192,64 l0,32 l 32,0 L 224,224 l-32,0 l0,32 l 96,0 l0-160 l 32,0 L 320,64 z"  />
<glyph unicode="&#xe00d;" d="M 256,480C 114.615,480,0,365.385,0,224s 114.615-256, 256-256s 256,114.615, 256,256S 397.385,480, 256,480z M 384,306.745L 301.256,224
	L 384,141.256L 384,96 l-45.256,0 L 256,178.744L 173.255,96L 128,96 l0,45.256 L 210.745,224L 128,306.745L 128,352 l 45.255,0 L 256,269.255L 338.744,352L 384,352 
	L 384,306.745 z"  />
<glyph unicode="&#xe006;" d="M 128,288L 256,160L 384,288 z"  />
<glyph unicode="&#x20;" horiz-adv-x="256" />
</font></defs></svg>

<?xml version="1.0" standalone="no"?>
<!DOCTYPE svg PUBLIC "-//W3C//DTD SVG 1.1//EN" "http://www.w3.org/Graphics/SVG/1.1/DTD/svg11.dtd" >
<svg xmlns="http://www.w3.org/2000/svg">
<metadata>
This is a custom SVG font generated by IcoMoon.
<iconset grid="16"></iconset>
</metadata>
<defs>
<font id="nag-icon-font" horiz-adv-x="512" >
<font-face units-per-em="512" ascent="480" descent="-32" />
<missing-glyph horiz-adv-x="512" />
<glyph class="hidden" unicode="&#xf000;" d="M0,480L 512 -32L0 -32 z" horiz-adv-x="0" />
<glyph unicode="&#xe000;" d="M0-32 L0,480 L 85.333,480 L 85.333,245.333 L 298.667,458.667 L 298.667,245.333 L 512,458.667 L 512-10.667 L 298.667,202.667 L 298.667-10.667 L 85.333,202.667 L 85.333-32 L0-32 Z M0-32"  />
<glyph unicode="&#xe001;" d="M 256,480 L 256,247.273 L 488.727,480 L 488.727-32 L 256,200.727 L 256-32 L0,224 L 256,480 Z M 256,480" horiz-adv-x="488.727"  />
<glyph unicode="&#xe002;" d="M 232.727-32 L 232.727,200.727 L0-32 L0,480 L 232.727,247.273 L 232.727,480 L 488.727,224 L 232.727-32 Z M 232.727-32" horiz-adv-x="488.727"  />
<glyph unicode="&#xe003;" d="M 512,480 L 512-32 L 426.667-32 L 426.667,202.667 L 213.333-10.667 L 213.333,202.667 L0-10.667 L0,458.667 L 213.333,245.333 L 213.333,458.667 L 426.667,245.333 L 426.667,480 L 512,480 Z M 512,480"  />
<glyph unicode="&#xe008;" d="M 372.364,293.818 L 186.182,480 L0,293.818 L 372.364,293.818 Z M0,154.182 L 186.182-32 L 372.364,154.182 L0,154.182 Z M0,154.182" horiz-adv-x="372.364"  />
<glyph unicode="&#xe009;" d="M 512,175.953 L 512,272.047 L 438.613,284.278 C 435.634,293.344 432.002,302.112 427.766,310.528 L 470.993,371.045 L 403.045,438.994 L 342.632,395.842 C 334.177,400.119 325.363,403.786 316.248,406.793 L 304.047,480 L 207.953,480 L 195.752,406.792 C 186.637,403.785 177.823,400.118 169.369,395.841 L 108.955,438.993 L 41.006,371.044 L 84.233,310.526 C 79.998,302.111 76.366,293.343 73.387,284.277 L0,272.047 L0,175.953 L 73.559,163.693 C 76.539,154.709 80.164,146.019 84.38,137.678 L 41.006,76.954 L 108.955,9.006 L 169.782,52.453 C 178.083,48.278 186.727,44.689 195.664,41.736 L 207.953-32 L 304.047-32 L 316.336,41.737 C 325.273,44.69 333.917,48.279 342.219,52.453 L 403.045,9.007 L 470.993,76.955 L 427.621,137.678 C 431.837,146.019 435.46,154.709 438.441,163.694 L 512,175.953 L 512,175.953 Z M 256,160 C 220.654,160 192,188.653 192,224 C 192,259.346 220.654,288 256,288 C 291.347,288 320,259.346 320,224 C 320,188.653 291.347,160 256,160 L 256,160 Z M 256,160"  />
<glyph unicode="&#xe00a;" d="M 504.978,22.12 L 286.441,457.676 C 278.070,472.559 267.035,480 256,480 C 244.965,480 233.93,472.559 225.558,457.676 L 7.021,22.12 C-9.722-7.646 4.521-32 38.673-32 L 473.327-32 C 507.478-32 521.723-7.646 504.978,22.12 L 504.978,22.12 Z M 256,32 C 238.327,32 224,46.327 224,64 C 224,81.674 238.327,96 256,96 C 273.674,96 288,81.674 288,64 C 288,46.327 273.674,32 256,32 L 256,32 Z M 278,128 L 234,128 L 224,256 C 224,273.673 238.327,288 256,288 C 273.673,288 288,273.673 288,256 L 278,128 L 278,128 Z M 278,128"  />
<glyph unicode="&#xe00b;" d="M 256,480 C 114.615,480 0,365.385 0,224 C0,82.615 114.615-32 256-32 C 397.385-32 512,82.615 512,224 C 512,365.385 397.385,480 256,480 L 256,480 Z M 208,64 L 102,202 L 149,251 L 208,176 L 393,327 L 416,304 L 208,64 L 208,64 Z M 208,64"  />
<glyph unicode="&#xe00c;" d="M 256,480 C 114.615,480 0,365.385 0,224 C0,82.615 114.615-32 256-32 C 397.385-32 512,82.615 512,224 C 512,365.385 397.385,480 256,480 L 256,480 Z M 224,384 L 288,384 L 288,320 L 224,320 L 224,384 L 224,384 Z M 320,64 L 192,64 L 192,96 L 224,96 L 224,224 L 192,224 L 192,256 L 288,256 L 288,96 L 320,96 L 320,64 L 320,64 Z M 320,64"  />
<glyph unicode="&#xe00d;" d="M 256,480 C 114.615,480 0,365.385 0,224 C0,82.615 114.615-32 256-32 C 397.385-32 512,82.615 512,224 C 512,365.385 397.385,480 256,480 L 256,480 Z M 384,306.745 L 301.256,224 L 384,141.256 L 384,96 L 338.744,96 L 256,178.744 L 173.255,96 L 128,96 L 128,141.256 L 210.745,224 L 128,306.745 L 128,352 L 173.255,352 L 256,269.255 L 338.744,352 L 384,352 L 384,306.745 L 384,306.745 Z M 384,306.745"  />
<glyph unicode="&#xe004;" d="M 512,94 L 256,350 L0,94 L 512,94 Z M 512,94"  />
<glyph unicode="&#xe005;" d="M0-32 L 256,224 L0,480 L0-32 Z M0-32" horiz-adv-x="256"  />
<glyph unicode="&#xe006;" d="M0,352 L 256,96 L 512,352 L0,352 Z M0,352"  />
<glyph unicode="&#xe007;" d="M 256,480 L0,224 L 256-32.002 L 256,480 Z M 256,480" horiz-adv-x="256"  />
<glyph unicode="&#xe00e;" d="M 512,88.683 L 512-32 L 391.317-32 L 256,103.317 L 120.68-32 L0-32 L0,88.683 L 135.32,224 L0,359.32 L0,480 L 120.68,480 L 256,344.68 L 391.317,480 L 512,480 L 512,359.32 L 376.683,224 L 512,88.683 Z M 512,88.683" />
<glyph unicode="&#x20;" horiz-adv-x="256" />
</font></defs></svg>
